X: 2
T: The Other Clog
S: Matt Cunningham
M: 2/4
L: 1/8
R: polka
K: A Major
|: B/ |\
cA A>B | cA Ac | BE GA | Bc d/c/B/d/ |
cA A>B | cA Ac | BE G>A | BA A-A/ :|
|: B/ |\
ce df | ea c2 | e>d BG | fe c>=c |
ce dd/f/ | ea c2 | e>d BG | A2 A-A/ :|
